X:32
T: Szól a figemadár..
K: F
M: 4/4
L: 1/4
g>f e>f | g2 a2 | 
gfed | f2 B2 |
c B A<G | c2 d2 | 
BAG2 | GAG2 | 

